GeneralPlan/dist/assets/img/customer-developer-5.svg

<svg width="52" height="30" viewBox="0 0 52 30" fill="none" xmlns="http://www.w3.org/2000/svg">
<path fill-rule="evenodd" clip-rule="evenodd" d="M24.0265 1.20875C24.0265 2.83349 25.0236 3.3815 25.6999 2.12854C26.4273 0.780921 28.487 1.24922 28.7038 2.81169C28.8149 3.61067 27.9037 5.04423 26.151 6.82715L23.4258 9.60023V7.60246C23.4258 6.50394 23.1555 5.6047 22.8251 5.6047C22.4948 5.6047 22.2245 6.82217 22.2245 8.31052C22.2245 10.2361 21.8737 11.3452 21.0087 12.1566C20.1985 12.917 19.9936 13.5048 20.3943 13.9202C20.7943 14.335 21.3709 14.1899 22.1242 13.483C23.1321 12.5377 23.3357 12.5259 24.0139 13.3734C25.1797 14.8294 28.4065 14.561 29.9286 12.8821C31.429 11.2256 31.6651 7.99604 30.3671 6.87946C29.6907 6.29719 29.6433 5.80585 30.152 4.64879C30.6656 3.47927 30.5923 2.82913 29.8042 1.58239C29.0108 0.326941 28.311 0 26.4153 0C24.4511 0 24.0265 0.214847 24.0265 1.20875ZM30.0331 9.52425C30.0331 11.0319 28.4005 13.0776 27.1974 13.0776C26.7312 13.0776 25.7972 12.7712 25.1221 12.3963C23.9394 11.74 23.9784 11.6241 26.169 9.2982C27.914 7.44553 28.6305 7.04137 29.239 7.5651C29.6757 7.94061 30.0331 8.82242 30.0331 9.52425ZM0 25.5325V29.8917H2.36C4.75544 29.8917 6.60728 28.6662 6.60728 27.0819C6.60728 26.6124 6.33338 26.0531 5.99941 25.8389C5.61318 25.5917 5.59456 25.0723 5.94835 24.4172C6.98029 22.5054 5.63961 21.1733 2.68195 21.1733H0V25.5325ZM10.0341 21.9517C8.33659 23.2632 8.13236 26.2449 9.60698 28.1891C11.824 31.1111 15.3571 30.1576 16.4804 26.3346C16.8888 24.9447 15.9974 22.4954 14.7763 21.6497C13.7383 20.9311 11.1411 21.0961 10.0341 21.9517ZM18.6205 25.5842C18.6205 28.8349 18.8181 29.9285 19.3713 29.7398C19.7846 29.599 20.2573 28.2446 20.4225 26.7294L20.7228 23.9757L22.5248 26.9325C25.0836 31.1316 25.8285 30.8159 25.8285 25.5325C25.8285 22.1498 25.6344 21.1733 24.9617 21.1733C24.3743 21.1733 24.0361 22.0134 23.9105 23.7845L23.7261 26.3963L22.0659 23.7845C19.5317 19.7989 18.6205 20.2753 18.6205 25.5842ZM30.701 22.524C30.4037 23.3224 29.6925 25.1782 29.1207 26.6479C28.0881 29.3007 28.3849 31.187 29.5075 29.1083C29.8541 28.4656 30.8037 28.0235 31.8351 28.0235C32.8664 28.0235 33.8161 28.4656 34.1626 29.1083C34.4846 29.7049 34.9471 29.9864 35.1898 29.7348C35.7778 29.1251 32.9283 21.6547 31.9828 21.3284C31.575 21.187 30.9984 21.7257 30.701 22.524ZM36.9563 22.501C38.0297 26.0799 39.5308 29.5411 40.0942 29.736C40.7008 29.9459 44.0639 21.8122 43.5792 21.3091C42.9954 20.7044 42.0319 22.0134 41.367 24.3132C40.9753 25.6689 40.4834 26.778 40.2732 26.778C40.0635 26.778 39.4791 25.6035 38.9739 24.1687C37.984 21.3533 36.1604 19.8462 36.9563 22.501ZM46.1663 25.3768C44.5841 29.5922 44.4802 31.1478 45.9158 29.1121C46.3381 28.5136 47.4349 28.0235 48.3533 28.0235C49.2717 28.0235 50.3685 28.5136 50.7908 29.1121C51.213 29.7111 51.7278 30.0256 51.935 29.8108C52.4984 29.2266 49.235 21.1733 48.435 21.1733C48.0547 21.1733 47.0336 23.0652 46.1663 25.3768ZM4.69417 23.5086C4.57404 24.1656 3.84123 24.6769 2.84774 24.7952C1.52268 24.954 1.20132 24.741 1.20132 23.7054C1.20132 22.6841 1.58214 22.4188 3.04716 22.4188C4.48094 22.4188 4.84914 22.6623 4.69417 23.5086ZM14.3858 23.3156C15.3673 24.5417 14.9463 27.4369 13.6651 28.2689C12.2066 29.2161 10.565 28.054 10.3182 25.8993C9.97879 22.9444 12.7034 21.2138 14.3858 23.3156ZM32.4357 24.236C32.4357 24.5505 32.5997 25.251 32.8003 25.7928C33.0652 26.5084 32.8009 26.778 31.8351 26.778C30.8692 26.778 30.6049 26.5084 30.8698 25.7928C31.0704 25.251 31.2344 24.5505 31.2344 24.236C31.2344 23.9215 31.5047 23.6643 31.8351 23.6643C32.1654 23.6643 32.4357 23.9215 32.4357 24.236ZM49.2543 25.5693C49.2543 26.2344 48.8488 26.778 48.3533 26.778C47.3844 26.778 47.2402 26.2076 47.8157 24.6532C48.2848 23.3853 49.2543 24.0031 49.2543 25.5693ZM4.69417 27.2451C4.57404 27.9021 3.84123 28.4133 2.84774 28.5317C1.52268 28.6905 1.20132 28.4775 1.20132 27.4419C1.20132 26.4206 1.58214 26.1553 3.04716 26.1553C4.48094 26.1553 4.84914 26.3988 4.69417 27.2451Z" fill="white"/>
</svg>

<svg width="52" height="30" fill="none" xmlns="http://www.w3.org/2000/svg"><path fill-rule="evenodd" clip-rule="evenodd" d="M24.026 1.209c0 1.624.998 2.172 1.674.92.727-1.348 2.787-.88 3.004.683.11.799-.8 2.232-2.553 4.015L23.426 9.6V7.602c0-1.098-.27-1.997-.6-1.997-.331 0-.602 1.217-.602 2.706 0 1.925-.35 3.034-1.215 3.846-.81.76-1.015 1.348-.615 1.763.4.415.977.27 1.73-.437 1.008-.945 1.212-.957 1.89-.11 1.166 1.456 4.393 1.188 5.915-.49 1.5-1.657 1.736-4.887.438-6.004-.676-.582-.724-1.073-.215-2.23.514-1.17.44-1.82-.348-3.067C29.011.327 28.311 0 26.415 0c-1.964 0-2.389.215-2.389 1.209zm6.007 8.315c0 1.508-1.633 3.554-2.836 3.554-.466 0-1.4-.307-2.075-.682-1.183-.656-1.144-.772 1.047-3.098 1.745-1.852 2.462-2.257 3.07-1.733.437.376.794 1.257.794 1.96zM0 25.532v4.36h2.36c2.395 0 4.247-1.226 4.247-2.81 0-.47-.274-1.029-.608-1.243-.386-.247-.404-.767-.05-1.422 1.031-1.912-.31-3.244-3.267-3.244H0v4.36zm10.034-3.58c-1.697 1.311-1.902 4.293-.427 6.237 2.217 2.922 5.75 1.969 6.873-1.854.409-1.39-.483-3.84-1.704-4.685-1.038-.719-3.635-.554-4.742.302zm8.586 3.632c0 3.25.198 4.345.751 4.156.414-.141.886-1.495 1.052-3.01l.3-2.754 1.802 2.957c2.559 4.199 3.303 3.883 3.303-1.4 0-3.383-.194-4.36-.866-4.36-.588 0-.926.84-1.052 2.612l-.184 2.611-1.66-2.611c-2.534-3.986-3.445-3.51-3.445 1.8zm12.081-3.06c-.297.798-1.009 2.654-1.58 4.124-1.033 2.653-.736 4.539.387 2.46.346-.642 1.296-1.085 2.327-1.085s1.981.443 2.328 1.085c.322.597.784.878 1.027.627.588-.61-2.262-8.08-3.207-8.407-.408-.141-.985.398-1.282 1.196zm6.255-.023c1.074 3.579 2.575 7.04 3.138 7.235.607.21 3.97-7.924 3.485-8.427-.584-.605-1.547.704-2.212 3.004-.392 1.356-.884 2.465-1.094 2.465-.21 0-.794-1.174-1.3-2.61-.989-2.815-2.813-4.322-2.017-1.667zm9.21 2.876c-1.582 4.215-1.686 5.77-.25 3.735.422-.598 1.519-1.088 2.437-1.088.919 0 2.015.49 2.438 1.088.422.6.937.914 1.144.699.563-.584-2.7-8.638-3.5-8.638-.38 0-1.401 1.892-2.269 4.204zM4.694 23.509c-.12.657-.853 1.168-1.846 1.286-1.325.159-1.647-.054-1.647-1.09 0-1.02.381-1.286 1.846-1.286 1.434 0 1.802.243 1.647 1.09zm9.692-.193c.981 1.226.56 4.12-.72 4.953-1.46.947-3.101-.215-3.348-2.37-.34-2.955 2.385-4.685 4.068-2.583zm18.05.92c0 .314.164 1.015.364 1.557.265.715 0 .985-.965.985-.966 0-1.23-.27-.965-.985.2-.542.364-1.242.364-1.557 0-.314.27-.572.601-.572.33 0 .6.258.6.572zm16.818 1.333c0 .665-.405 1.209-.9 1.209-.97 0-1.114-.57-.538-2.125.469-1.268 1.438-.65 1.438.916zm-44.56 1.676c-.12.657-.853 1.168-1.846 1.287-1.325.159-1.647-.055-1.647-1.09 0-1.021.381-1.287 1.846-1.287 1.434 0 1.802.244 1.647 1.09z" fill="#fff"/></svg>
